;FLAVOR:Marlin
;TIME:11227
;Filament used: 20.8277m
;Layer height: 0.2
;MINX:6.613
;MINY:6.612
;MINZ:0.2
;MAXX:213.387
;MAXY:213.387
;MAXZ:7
;TARGET_MACHINE.NAME:Creality Ender-3 V3 SE
;Generated with Cura_SteamEngine 5.10.0
M220 S100 ;Reset Feedrate
M221 S100 ;Reset Flowrate

G28 ;Home

M420 S1; Use saved mesh leveling data

G92 E0 ;Reset Extruder
G1 Z2.0 F3000 ;Move Z Axis up
G1 X-3 Y20 Z0.28 F5000.0 ;Move to start position
M190 S60 ; Set bed temperature and wait
M109 S200 ; Set hotend temperature and wait
G1 X-3 Y100.0 Z0.28 F1500.0 E15 ;Draw the first line
G1 X-2 Y100.0 Z0.28 F5000.0 ;Move to side a little
G1 X-2 Y20 Z0.28 F1500.0 E30 ;Draw the second line
G92 E0 ;Reset Extruder
G1 E-1.0000 F1800 ;Retract a bit
G1 Z2.0 F3000 ;Move Z Axis up
G1 E0.0000 F1800 

M82 ;absolute extrusion mode
G92 E0
G92 E0
G1 F2400 E-0.8
;LAYER_COUNT:35
;LAYER:0
M107
G0 F9000 X60.643 Y13.148 Z0.2
;TYPE:SKIRT
G1 F2400 E0
G1 F1800 X13.125 Y60.664 E2.23505
G1 X12.688 Y61.113 E2.25589
G1 X12.148 Y61.71 E2.28267
G1 X11.558 Y62.478 E2.31488
G1 X11.145 Y63.069 E2.33886
G1 X9.579 Y65.411 E2.43256
G1 X9.153 Y66.067 E2.45858
G1 X8.632 Y66.96 E2.49297
G1 X8.219 Y67.846 E2.52548
G1 X7.888 Y68.761 E2.55784
G1 X7.637 Y69.703 E2.59027
G1 X7.478 Y70.441 E2.61538
G1 X6.916 Y73.272 E2.71137
G1 X6.801 Y73.899 E2.73257
G1 X6.686 Y74.697 E2.75939
G1 X6.626 Y75.665 E2.79165
G1 X6.613 Y76.41 E2.81643
G1 X6.613 Y143.68 E5.05384
G1 X6.624 Y144.324 E5.07526
G1 X6.669 Y145.123 E5.10188
G1 X6.798 Y146.082 E5.13406
G1 X6.924 Y146.773 E5.15742
G1 X7.462 Y149.479 E5.24919
G1 X7.629 Y150.273 E5.27617
G1 X7.891 Y151.258 E5.31007
G1 X8.228 Y152.176 E5.3426
G1 X8.64 Y153.056 E5.37492
G1 X9.149 Y153.93 E5.40856
G1 X9.538 Y154.53 E5.43234
G1 X11.018 Y156.745 E5.52094
G1 X11.496 Y157.441 E5.54903
G1 X12.008 Y158.122 E5.57736
G1 X12.651 Y158.848 E5.60962
G1 X13.148 Y159.357 E5.63328
G1 X60.568 Y206.779 E7.86382
G1 X61.11 Y207.309 E7.88903
G1 X61.704 Y207.847 E7.91569
G1 X62.47 Y208.437 E7.94785
G1 X63.061 Y208.85 E7.97183
G1 X65.41 Y210.421 E8.06582
G1 X66.093 Y210.863 E8.09288
G1 X66.957 Y211.365 E8.12611
G1 X67.842 Y211.779 E8.15861
G1 X68.758 Y212.11 E8.191
G1 X69.699 Y212.361 E8.2234
G1 X70.593 Y212.553 E8.25381
G1 X73.099 Y213.051 E8.33879
G1 X73.9 Y213.198 E8.36587
G1 X74.697 Y213.314 E8.39266
G1 X75.665 Y213.374 E8.42492
G1 X76.41 Y213.387 E8.4497
G1 X143.68 Y213.387 E10.68711
G1 X144.323 Y213.376 E10.7085
G1 X145.122 Y213.331 E10.73512
G1 X146.081 Y213.202 E10.7673
G1 X146.772 Y213.076 E10.79066
G1 X149.615 Y212.51 E10.88708
G1 X150.244 Y212.376 E10.90847
G1 X151.254 Y212.11 E10.94321
G1 X152.173 Y211.773 E10.97576
G1 X153.053 Y211.361 E11.00808
G1 X153.927 Y210.852 E11.04172
G1 X154.648 Y210.384 E11.07031
G1 X156.745 Y208.982 E11.15421
G1 X157.441 Y208.504 E11.18229
G1 X158.122 Y207.992 E11.21063
G1 X158.848 Y207.349 E11.24288
G1 X159.357 Y206.852 E11.26655
G1 X206.875 Y159.336 E13.5016
G1 X207.312 Y158.887 E13.52244
G1 X207.844 Y158.3 E13.54879
G1 X208.435 Y157.533 E13.58099
G1 X208.969 Y156.765 E13.6121
G1 X210.423 Y154.589 E13.69915
G1 X210.863 Y153.907 E13.72614
G1 X211.365 Y153.043 E13.75938
G1 X211.779 Y152.158 E13.79188
G1 X212.11 Y151.242 E13.82427
G1 X212.361 Y150.301 E13.85666
G1 X212.553 Y149.406 E13.88711
G1 X213.084 Y146.728 E13.97791
G1 X213.199 Y146.101 E13.99911
G1 X213.314 Y145.303 E14.02593
G1 X213.374 Y144.335 E14.05819
G1 X213.387 Y143.59 E14.08297
G1 X213.387 Y76.32 E16.32038
G1 X213.376 Y75.676 E16.3418
G1 X213.331 Y74.874 E16.36852
G1 X213.202 Y73.915 E16.4007
G1 X213.076 Y73.225 E16.42403
G1 X212.538 Y70.522 E16.5157
G1 X212.367 Y69.715 E16.54313
G1 X212.113 Y68.758 E16.57607
G1 X211.78 Y67.841 E16.60851
G1 X211.366 Y66.958 E16.64095
G1 X210.876 Y66.116 E16.67335
G1 X210.385 Y65.355 E16.70347
G1 X208.893 Y63.126 E16.79269
G1 X208.503 Y62.56 E16.81555
G1 X208.008 Y61.899 E16.84301
G1 X207.354 Y61.159 E16.87586
G1 X206.867 Y60.657 E16.89912
G1 X159.336 Y13.125 E19.13486
G1 X158.887 Y12.688 E19.1557
G1 X158.3 Y12.156 E19.18205
G1 X157.533 Y11.565 E19.21425
G1 X156.765 Y11.031 E19.24536
G1 X154.589 Y9.577 E19.33241
G1 X153.907 Y9.137 E19.3594
G1 X153.043 Y8.635 E19.39264
G1 X152.158 Y8.221 E19.42514
G1 X151.242 Y7.89 E19.45753
G1 X150.301 Y7.639 E19.48992
G1 X149.406 Y7.447 E19.52037
G1 X146.728 Y6.916 E19.61117
G1 X146.101 Y6.801 E19.63237
G1 X145.303 Y6.686 E19.65919
G1 X144.335 Y6.626 E19.69145
G1 X143.431 Y6.612 E19.72152
G1 X76.334 Y6.613 E21.95317
G1 X75.677 Y6.624 E21.97503
G1 X74.878 Y6.669 E22.00165
G1 X73.919 Y6.798 E22.03383
G1 X73.228 Y6.924 E22.05719
G1 X70.385 Y7.49 E22.1536
G1 X69.756 Y7.624 E22.17499
G1 X68.746 Y7.89 E22.20973
G1 X67.827 Y8.227 E22.24229
G1 X66.947 Y8.639 E22.27461
G1 X66.073 Y9.148 E22.30825
G1 X65.352 Y9.616 E22.33684
G1 X63.255 Y11.018 E22.42074
G1 X62.559 Y11.496 E22.44882
G1 X61.878 Y12.008 E22.47716
G1 X61.152 Y12.651 E22.50941
G1 X60.643 Y13.148 E22.53307
G0 F9000 X60.922 Y13.434
G1 F1800 X13.408 Y60.947 E24.76796
G1 X12.975 Y61.392 E24.78861
G1 X12.445 Y61.978 E24.81489
G1 X11.875 Y62.721 E24.84604
G1 X11.473 Y63.298 E24.86943
G1 X9.912 Y65.633 E24.96285
G1 X9.488 Y66.285 E24.98872
G1 X8.978 Y67.161 E25.02243
G1 X8.582 Y68.014 E25.05371
G1 X8.264 Y68.897 E25.08492
G1 X8.024 Y69.805 E25.11616
G1 X7.869 Y70.525 E25.14066
G1 X7.308 Y73.35 E25.23645
G1 X7.194 Y73.971 E25.25745
G1 X7.082 Y74.754 E25.28376
G1 X7.025 Y75.689 E25.31492
G1 X7.013 Y76.417 E25.33913
G1 X7.013 Y143.673 E27.57608
G1 X7.024 Y144.317 E27.5975
G1 X7.068 Y145.101 E27.62362
G1 X7.194 Y146.028 E27.65473
G1 X7.317 Y146.701 E27.67749
G1 X7.854 Y149.401 E27.76905
G1 X8.016 Y150.17 E27.79519
G1 X8.278 Y151.155 E27.82909
G1 X8.603 Y152.038 E27.86038
G1 X9.002 Y152.886 E27.89155
G1 X9.485 Y153.712 E27.92338
G1 X9.874 Y154.312 E27.94716
G1 X11.351 Y156.523 E28.0356
G1 X11.826 Y157.214 E28.06349
G1 X12.328 Y157.882 E28.09128
G1 X12.95 Y158.582 E28.12242
G1 X13.434 Y159.078 E28.14547
G1 X60.851 Y206.496 E30.37585
G1 X61.39 Y207.023 E30.40092
G1 X61.972 Y207.55 E30.42703
G1 X62.714 Y208.12 E30.45815
G1 X63.29 Y208.522 E30.48152
G1 X65.632 Y210.088 E30.57522
G1 X66.31 Y210.527 E30.60209
G1 X67.158 Y211.019 E30.63469
G1 X68.011 Y211.416 E30.66599
G1 X68.894 Y211.734 E30.6972
G1 X69.801 Y211.974 E30.72841
G1 X70.677 Y212.162 E30.75821
G1 X73.177 Y212.659 E30.84298
G1 X73.972 Y212.805 E30.86987
G1 X74.754 Y212.918 E30.89615
G1 X75.689 Y212.975 E30.9273
G1 X76.417 Y212.987 E30.95152
G1 X143.673 Y212.987 E33.18846
G1 X144.316 Y212.976 E33.20985
G1 X145.1 Y212.932 E33.23597
G1 X146.027 Y212.806 E33.26709
G1 X146.7 Y212.683 E33.28984
G1 X149.537 Y212.118 E33.38605
G1 X150.161 Y211.985 E33.40727
G1 X151.152 Y211.723 E33.44137
G1 X152.035 Y211.398 E33.47266
G1 X152.883 Y210.999 E33.50383
G1 X153.709 Y210.516 E33.53566
G1 X154.43 Y210.048 E33.56425
G1 X156.523 Y208.649 E33.64798
G1 X157.214 Y208.174 E33.67587
G1 X157.882 Y207.672 E33.70366
G1 X158.582 Y207.05 E33.73481
G1 X159.078 Y206.566 E33.75786
G1 X206.592 Y159.053 E35.99274
G1 X207.025 Y158.608 E36.0134
G1 X207.548 Y158.031 E36.0393
G1 X208.118 Y157.289 E36.07042
G1 X208.641 Y156.537 E36.10088
G1 X210.09 Y154.367 E36.18767
G1 X210.527 Y153.69 E36.21447
G1 X211.019 Y152.842 E36.24708
G1 X211.416 Y151.989 E36.27837
G1 X211.734 Y151.106 E36.30959
G1 X211.974 Y150.199 E36.34079
G1 X212.162 Y149.322 E36.37062
G1 X212.692 Y146.65 E36.46123
G1 X212.806 Y146.029 E36.48223
G1 X212.918 Y145.246 E36.50853
G1 X212.975 Y144.311 E36.53969
G1 X212.987 Y143.583 E36.56391
G1 X212.987 Y76.327 E38.80085
G1 X212.976 Y75.683 E38.82227
G1 X212.932 Y74.896 E38.84849
G1 X212.806 Y73.969 E38.8796
G1 X212.683 Y73.297 E38.90233
G1 X212.146 Y70.6 E38.99379
G1 X211.98 Y69.818 E39.02038
G1 X211.726 Y68.861 E39.05331
G1 X211.404 Y67.978 E39.08457
G1 X211.004 Y67.128 E39.11582
G1 X210.531 Y66.318 E39.14701
G1 X210.049 Y65.572 E39.17655
G1 X208.561 Y63.348 E39.26556
G1 X208.174 Y62.787 E39.28822
G1 X207.688 Y62.139 E39.31516
G1 X207.067 Y61.438 E39.34631
G1 X206.58 Y60.936 E39.36957
G1 X159.053 Y13.408 E41.60512
G1 X158.608 Y12.975 E41.62577
G1 X158.031 Y12.452 E41.65167
G1 X157.289 Y11.882 E41.6828
G1 X156.537 Y11.359 E41.71326
G1 X154.367 Y9.91 E41.80005
G1 X153.69 Y9.473 E41.82685
G1 X152.842 Y8.981 E41.85946
G1 X151.989 Y8.584 E41.89075
G1 X151.106 Y8.266 E41.92196
G1 X150.199 Y8.026 E41.95317
G1 X149.322 Y7.838 E41.983
G1 X146.65 Y7.308 E42.0736
G1 X146.029 Y7.194 E42.0946
G1 X145.246 Y7.082 E42.12091
G1 X144.311 Y7.025 E42.15207
G1 X143.425 Y7.012 E42.18154
G1 X76.334 Y7.013 E44.41299
G1 X75.684 Y7.024 E44.43462
G1 X74.9 Y7.068 E44.46073
G1 X73.973 Y7.194 E44.49185
G1 X73.3 Y7.317 E44.5146
G1 X70.463 Y7.882 E44.61082
G1 X69.839 Y8.015 E44.63204
G1 X68.848 Y8.277 E44.66613
G1 X67.965 Y8.602 E44.69742
G1 X67.117 Y9.001 E44.7286
G1 X66.291 Y9.484 E44.76042
G1 X65.57 Y9.952 E44.78901
G1 X63.477 Y11.351 E44.87274
G1 X62.786 Y11.826 E44.90063
G1 X62.118 Y12.328 E44.92842
G1 X61.418 Y12.95 E44.95957
G1 X60.922 Y13.434 E44.98262
G0 F9000 X61.201 Y13.72
G1 F1800 X13.691 Y61.23 E47.21734
G1 X13.261 Y61.671 E47.23783
G1 X12.742 Y62.246 E47.26359
G1 X12.193 Y62.964 E47.29365
G1 X11.801 Y63.527 E47.31647
G1 X10.244 Y65.855 E47.40962
G1 X9.823 Y66.503 E47.43533
G1 X9.324 Y67.362 E47.46837
G1 X8.945 Y68.182 E47.49841
G1 X8.64 Y69.032 E47.52845
G1 X8.411 Y69.906 E47.5585
G1 X8.26 Y70.609 E47.58241
G1 X7.7 Y73.428 E47.67801
G1 X7.588 Y74.043 E47.6988
G1 X7.478 Y74.811 E47.7246
G1 X7.424 Y75.713 E47.75466
G1 X7.413 Y76.423 E47.77827
G1 X7.413 Y143.666 E50.01479
G1 X7.424 Y144.31 E50.03621
G1 X7.467 Y145.079 E50.06182
G1 X7.59 Y145.974 E50.09187
G1 X7.71 Y146.629 E50.11402
G1 X8.246 Y149.323 E50.20538
G1 X8.403 Y150.067 E50.23067
G1 X8.665 Y151.052 E50.26457
G1 X8.978 Y151.899 E50.2946
G1 X9.364 Y152.715 E50.32463
G1 X9.821 Y153.494 E50.35467
G1 X10.21 Y154.094 E50.37845
G1 X11.684 Y156.301 E50.46672
G1 X12.156 Y156.987 E50.49442
G1 X12.648 Y157.642 E50.52166
G1 X13.249 Y158.316 E50.5517
G1 X13.72 Y158.799 E50.57414
G1 X61.131 Y206.21 E52.8042
G1 X61.67 Y206.737 E52.82928
G1 X62.24 Y207.253 E52.85485
G1 X62.957 Y207.802 E52.88488
G1 X63.519 Y208.194 E52.90768
G1 X65.854 Y209.756 E53.00111
G1 X66.527 Y210.191 E53.02777
G1 X67.359 Y210.673 E53.05975
G1 X68.179 Y211.053 E53.08981
G1 X69.029 Y211.358 E53.11984
G1 X69.902 Y211.587 E53.14986
G1 X70.761 Y211.771 E53.17908
G1 X73.255 Y212.267 E53.26365
G1 X74.044 Y212.412 E53.29034
G1 X74.811 Y212.522 E53.31611
G1 X75.713 Y212.576 E53.34616
G1 X76.423 Y212.587 E53.36978
G1 X143.666 Y212.587 E55.60629
G1 X144.309 Y212.576 E55.62768
G1 X145.078 Y212.533 E55.6533
G1 X145.973 Y212.41 E55.68334
G1 X146.628 Y212.29 E55.70549
G1 X149.459 Y211.726 E55.8015
G1 X150.077 Y211.594 E55.82252
G1 X151.049 Y211.336 E55.85597
G1 X151.896 Y211.023 E55.886
G1 X152.712 Y210.637 E55.91603
G1 X153.491 Y210.18 E55.94606
G1 X154.212 Y209.712 E55.97465
G1 X156.301 Y208.316 E56.05822
G1 X156.987 Y207.844 E56.08592
G1 X157.642 Y207.352 E56.11316
G1 X158.316 Y206.751 E56.1432
G1 X158.799 Y206.28 E56.16564
G1 X206.309 Y158.77 E58.40036
G1 X206.739 Y158.329 E58.42085
G1 X207.251 Y157.763 E58.44623
G1 X207.8 Y157.046 E58.47627
G1 X208.312 Y156.309 E58.50611
G1 X209.757 Y154.145 E58.59266
G1 X210.191 Y153.473 E58.61927
G1 X210.673 Y152.641 E58.65125
G1 X211.053 Y151.821 E58.68131
G1 X211.358 Y150.971 E58.71134
G1 X211.587 Y150.098 E58.74136
G1 X211.771 Y149.238 E58.77061
G1 X212.3 Y146.572 E58.86101
G1 X212.412 Y145.957 E58.88181
G1 X212.522 Y145.189 E58.90761
G1 X212.576 Y144.287 E58.93766
G1 X212.587 Y143.577 E58.96128
G1 X212.587 Y76.334 E61.19779
G1 X212.576 Y75.69 E61.21922
G1 X212.533 Y74.918 E61.24493
G1 X212.41 Y74.023 E61.27498
G1 X212.29 Y73.369 E61.2971
G1 X211.754 Y70.678 E61.38836
G1 X211.593 Y69.921 E61.4141
G1 X211.339 Y68.964 E61.44703
G1 X211.028 Y68.116 E61.47707
G1 X210.642 Y67.299 E61.50712
G1 X210.186 Y66.52 E61.53715
G1 X209.713 Y65.789 E61.56611
G1 X208.229 Y63.57 E61.65489
G1 X207.845 Y63.014 E61.67737
G1 X207.368 Y62.379 E61.70378
G1 X206.768 Y61.704 E61.73382
G1 X206.293 Y61.215 E61.7565
G1 X158.77 Y13.691 E63.99186
G1 X158.329 Y13.261 E64.01234
G1 X157.763 Y12.749 E64.03773
G1 X157.046 Y12.2 E64.06776
G1 X156.309 Y11.688 E64.09761
G1 X154.145 Y10.243 E64.18416
G1 X153.473 Y9.809 E64.21076
G1 X152.641 Y9.327 E64.24274
G1 X151.821 Y8.947 E64.2728
G1 X150.971 Y8.642 E64.30284
G1 X150.098 Y8.413 E64.33286
G1 X149.238 Y8.229 E64.36211
G1 X146.572 Y7.7 E64.45251
G1 X145.957 Y7.588 E64.4733
G1 X145.189 Y7.478 E64.4991
G1 X144.287 Y7.424 E64.52916
G1 X143.419 Y7.412 E64.55803
G1 X76.334 Y7.413 E66.78929
G1 X75.691 Y7.424 E66.81068
G1 X74.922 Y7.467 E66.83629
G1 X74.027 Y7.59 E66.86634
G1 X73.372 Y7.71 E66.88849
G1 X70.541 Y8.274 E66.9845
G1 X69.923 Y8.406 E67.00552
G1 X68.951 Y8.664 E67.03897
G1 X68.104 Y8.977 E67.069
G1 X67.288 Y9.363 E67.09902
G1 X66.509 Y9.82 E67.12906
G1 X65.788 Y10.288 E67.15765
G1 X63.699 Y11.684 E67.24122
G1 X63.013 Y12.156 E67.26891
G1 X62.358 Y12.648 E67.29616
G1 X61.684 Y13.249 E67.3262
G1 X61.201 Y13.72 E67.34863
G1 F2400 E66.54863
G0 F9000 X21.031 Y71.06
G1 F2400 E67.34863
G1 F1800 X22.612 Y70.638 E67.40306
G1 X24.193 Y71.06 E67.45748
G1 X25.353 Y72.221 E67.51207
G1 X25.777 Y73.803 E67.56655
G1 X25.353 Y75.386 E67.62105
G1 X24.195 Y76.544 E67.67552
G1 X22.612 Y76.968 E67.73003
G1 X21.029 Y76.544 E67.78453
G1 X19.871 Y75.386 E67.839
G1 X19.447 Y73.803 E67.89351
G1 X19.871 Y72.221 E67.94798
G1 X21.031 Y71.06 E68.00257
G0 F9000 X21.237 Y71.42
G1 F1800 X22.612 Y71.052 E68.04991
G1 X23.987 Y71.42 E68.09725
G1 X24.993 Y72.427 E68.1446
G1 X25.362 Y73.803 E68.19198
G1 X24.993 Y75.18 E68.2394
G1 X23.989 Y76.184 E68.28662
G1 X22.612 Y76.553 E68.33404
G1 X21.235 Y76.184 E68.38145
G1 X20.231 Y75.18 E68.42868
G1 X19.862 Y73.803 E68.47609
G1 X20.231 Y72.427 E68.52347
G1 X21.237 Y71.42 E68.57082
G0 F9000 X21.445 Y71.778
G1 F1800 X22.612 Y71.466 E68.61099
G1 X23.779 Y71.778 E68.65117
G1 X24.635 Y72.635 E68.69146
G1 X24.949 Y73.803 E68.73169
G1 X24.635 Y74.972 E68.77195
G1 X23.781 Y75.826 E68.81212
G1 X22.612 Y76.14 E68.85238
G1 X21.443 Y75.826 E68.89263
G1 X20.589 Y74.972 E68.9328
G1 X20.275 Y73.803 E68.97306
G1 X20.589 Y72.635 E69.01329
G1 X21.445 Y71.778 E69.05358
G0 F9000 X21.652 Y72.137
G1 F1800 X22.612 Y71.88 E69.08663
G1 X23.572 Y72.137 E69.11969
G1 X24.277 Y72.843 E69.15287
G1 X24.535 Y73.803 E69.18593
G1 X24.277 Y74.764 E69.21903
G1 X23.573 Y75.468 E69.25214
G1 X22.612 Y75.726 E69.28524
G1 X21.651 Y75.468 E69.31833
G1 X20.947 Y74.764 E69.35145
G1 X20.689 Y73.803 E69.38454
G1 X20.947 Y72.843 E69.4176
G1 X21.652 Y72.137 E69.45079
G0 F9000 X21.859 Y72.496
G1 F1800 X22.612 Y72.294 E69.47672
G1 X23.365 Y72.496 E69.50265
G1 X23.918 Y73.048 E69.52864
G1 X24.12 Y73.803 E69.55463
G1 X23.918 Y74.557 E69.58059
G1 X23.366 Y75.109 E69.60656
G1 X22.612 Y75.311 E69.63252
G1 X21.858 Y75.109 E69.65848
G1 X21.306 Y74.557 E69.68445
G1 X21.104 Y73.803 E69.71041
G1 X21.306 Y73.048 E69.7364
G1 X21.859 Y72.496 E69.76239
G0 F9000 X22.067 Y72.853
G1 F1800 X22.612 Y72.708 E69.78115
G1 X23.157 Y72.853 E69.79991
G1 X23.559 Y73.256 E69.81884
G1 X23.706 Y73.803 E69.83768
G1 X23.56 Y74.349 E69.85648
G1 X23.158 Y74.751 E69.87539
G1 X22.612 Y74.897 E69.89418
G1 X22.066 Y74.751 E69.91298
G1 X21.664 Y74.349 E69.93189
G1 X21.518 Y73.803 E69.95069
G1 X21.665 Y73.256 E69.96953
G1 X22.067 Y72.853 E69.98846
G0 F9000 X22.274 Y73.213
G1 F1800 X22.612 Y73.122 E70.0001
G1 X22.95 Y73.213 E70.01174
G1 X23.201 Y73.464 E70.02355
G1 X23.292 Y73.804 E70.03526
G1 X23.201 Y74.144 E70.04696
G1 X22.953 Y74.392 E70.05863
G1 X22.612 Y74.484 E70.07038
G1 X22.271 Y74.392 E70.08212
G1 X22.023 Y74.144 E70.09379
G1 X21.932 Y73.804 E70.10549
G1 X22.023 Y73.464 E70.1172
G1 X22.274 Y73.213 E70.12901
G0 F9000 X22.48 Y73.571
G1 F1800 X22.612 Y73.536 E70.13355
G1 X22.744 Y73.571 E70.13809
G1 X22.842 Y73.669 E70.1427
G1 X22.878 Y73.803 E70.14732
G1 X22.842 Y73.937 E70.15193
G1 X22.746 Y74.033 E70.15645
G1 X22.612 Y74.069 E70.16106
G1 X22.478 Y74.033 E70.16568
G1 X22.382 Y73.937 E70.17019
G1 X22.346 Y73.803 E70.17481
G1 X22.382 Y73.669 E70.17942
G1 X22.48 Y73.571 E70.18403
G1 F2400 E69.38403
G0 F9000 X71.06 Y24.193
G1 F2400 E70.18403
